static/img/kroki/4e84308a1485bb638e2425cf31480d73.svg

<?xml version="1.0" encoding="us-ascii" standalone="no"?><svg xmlns="http://www.w3.org/2000/svg" xmlns:xlink="http://www.w3.org/1999/xlink" contentStyleType="text/css" height="374px" preserveAspectRatio="none" style="width:297px;height:374px;" version="1.1" viewBox="0 0 297 374" width="297px" zoomAndPan="magnify"><defs/><g><!--class aws_resource--><g id="elem_aws_resource"><rect codeLine="23" fill="#3D176E" height="39.7891" id="aws_resource" rx="2.5" ry="2.5" style="stroke:#000D19;stroke-width:0.5;" width="155" x="71" y="167.79"/><ellipse cx="86" cy="187.6845" fill="#ADD1B2" rx="11" ry="11" style="stroke:#181818;stroke-width:1.0;"/><path d="M88.9688,193.3252 Q88.3906,193.622 87.75,193.7627 Q87.1094,193.9189 86.4063,193.9189 Q83.9063,193.9189 82.5781,192.2783 Q81.2656,190.622 81.2656,187.497 Q81.2656,184.372 82.5781,182.7158 Q83.9063,181.0595 86.4063,181.0595 Q87.1094,181.0595 87.75,181.2158 Q88.4063,181.372 88.9688,181.6689 L88.9688,184.3877 Q88.3438,183.8095 87.75,183.5439 Q87.1563,183.2627 86.5313,183.2627 Q85.1875,183.2627 84.5,184.3408 Q83.8125,185.4033 83.8125,187.497 Q83.8125,189.5908 84.5,190.6689 Q85.1875,191.7314 86.5313,191.7314 Q87.1563,191.7314 87.75,191.4658 Q88.3438,191.1845 88.9688,190.6064 L88.9688,193.3252 Z " fill="#000000"/><text fill="#D9B8FF" font-family="Helvetica" font-size="17" lengthAdjust="spacing" textLength="113" x="105" y="193.5698">aws_resource</text></g><!--class aws_sagemaker_user_profile--><g id="elem_aws_sagemaker_user_profile"><rect codeLine="26" fill="#3D176E" height="39.7891" id="aws_sagemaker_user_profile" rx="2.5" ry="2.5" style="stroke:#000D19;stroke-width:0.5;" width="283" x="7" y="328.58"/><ellipse cx="22" cy="348.4745" fill="#ADD1B2" rx="11" ry="11" style="stroke:#181818;stroke-width:1.0;"/><path d="M24.9688,354.1152 Q24.3906,354.412 23.75,354.5527 Q23.1094,354.7089 22.4063,354.7089 Q19.9063,354.7089 18.5781,353.0683 Q17.2656,351.412 17.2656,348.287 Q17.2656,345.162 18.5781,343.5058 Q19.9063,341.8495 22.4063,341.8495 Q23.1094,341.8495 23.75,342.0058 Q24.4063,342.162 24.9688,342.4589 L24.9688,345.1777 Q24.3438,344.5995 23.75,344.3339 Q23.1563,344.0527 22.5313,344.0527 Q21.1875,344.0527 20.5,345.1308 Q19.8125,346.1933 19.8125,348.287 Q19.8125,350.3808 20.5,351.4589 Q21.1875,352.5214 22.5313,352.5214 Q23.1563,352.5214 23.75,352.2558 Q24.3438,351.9745 24.9688,351.3964 L24.9688,354.1152 Z " fill="#000000"/><text fill="#D9B8FF" font-family="Helvetica" font-size="17" lengthAdjust="spacing" textLength="241" x="41" y="354.3598">aws_sagemaker_user_profile</text></g><!--class resource--><g id="elem_resource"><rect codeLine="29" fill="#3D176E" height="39.7891" id="resource" rx="2.5" ry="2.5" style="stroke:#000D19;stroke-width:0.5;" width="113" x="92" y="7"/><ellipse cx="107" cy="26.8945" fill="#ADD1B2" rx="11" ry="11" style="stroke:#181818;stroke-width:1.0;"/><path d="M109.9688,32.5352 Q109.3906,32.832 108.75,32.9727 Q108.1094,33.1289 107.4063,33.1289 Q104.9063,33.1289 103.5781,31.4883 Q102.2656,29.832 102.2656,26.707 Q102.2656,23.582 103.5781,21.9258 Q104.9063,20.2695 107.4063,20.2695 Q108.1094,20.2695 108.75,20.4258 Q109.4063,20.582 109.9688,20.8789 L109.9688,23.5977 Q109.3438,23.0195 108.75,22.7539 Q108.1563,22.4727 107.5313,22.4727 Q106.1875,22.4727 105.5,23.5508 Q104.8125,24.6133 104.8125,26.707 Q104.8125,28.8008 105.5,29.8789 Q106.1875,30.9414 107.5313,30.9414 Q108.1563,30.9414 108.75,30.6758 Q109.3438,30.3945 109.9688,29.8164 L109.9688,32.5352 Z " fill="#000000"/><text fill="#D9B8FF" font-family="Helvetica" font-size="17" lengthAdjust="spacing" textLength="71" x="126" y="32.7798">resource</text></g><!--reverse link resource to aws_resource--><g id="link_resource_aws_resource"><path codeLine="32" d="M148.5,65.05 C148.5,95.57 148.5,136.9 148.5,167.46 " fill="none" id="resource-backto-aws_resource" style="stroke:#FFAF37;stroke-width:2.0;"/><polygon fill="none" points="148.5,47.05,142.5,65.05,154.5,65.05,148.5,47.05" style="stroke:#FFAF37;stroke-width:2.0;"/></g><!--reverse link aws_resource to aws_sagemaker_user_profile--><g id="link_aws_resource_aws_sagemaker_user_profile"><path codeLine="33" d="M148.5,225.84 C148.5,256.36 148.5,297.69 148.5,328.25 " fill="none" id="aws_resource-backto-aws_sagemaker_user_profile" style="stroke:#FFAF37;stroke-width:2.0;"/><polygon fill="none" points="148.5,207.84,142.5,225.84,154.5,225.84,148.5,207.84" style="stroke:#FFAF37;stroke-width:2.0;"/></g><!--SRC=[XP1DQyCm38Rl-HM6dWFjofOMTca3OxkKiUvUr5XEJ18xICv2z_7VrwnRvoJzk1Yazx7ULygqH85bvNQYn7ABn07dsbH0K8e5aMrYMrWI8wL0JQE- -62Dkmgie4JnYCKREfr0dtZDT98RP1OtdhI494_9raOUnZi2mti9ZVEek03cXNEajxL3BuoSRsTAzSd-qD5KJg8x762M9D8lCXwFvMJUHwvQNTpxIAprEug9VxILTJY8ER3ueIwcR0alv63HF_rincUGKfjKt7gzbqCcCaYT_Ze3QPkMLb2mRyCE2QtRLHWFjiBvJAhe9Fnq3WwIzdG26juGigqfGV4H15zUdo754dAaJStxfoAhTD6XkZ-FrVrd68QTqK77vry_RH5y0m00]--></g></svg>

<svg xmlns="http://www.w3.org/2000/svg" width="297" height="374" viewBox="0 0 297 374"><rect width="155" height="39.789" x="71" y="167.79" fill="#3D176E" rx="2.5" ry="2.5" style="stroke:#000d19;stroke-width:.5"/><circle cx="86" cy="187.685" r="11" fill="#ADD1B2" style="stroke:#181818;stroke-width:1"/><path d="M88.969 193.325q-.578.297-1.219.438-.64.156-1.344.156-2.5 0-3.828-1.64-1.312-1.657-1.312-4.782t1.312-4.781q1.328-1.656 3.828-1.656.703 0 1.344.156.656.156 1.219.453v2.719q-.625-.578-1.219-.844-.594-.281-1.219-.281-1.344 0-2.031 1.078-.687 1.062-.687 3.156t.687 3.172q.688 1.062 2.031 1.062.625 0 1.219-.265.594-.281 1.219-.86z"/><text x="105" y="193.57" fill="#D9B8FF" font-family="Helvetica" font-size="17" textLength="113">aws_resource</text><rect width="283" height="39.789" x="7" y="328.58" fill="#3D176E" rx="2.5" ry="2.5" style="stroke:#000d19;stroke-width:.5"/><circle cx="22" cy="348.474" r="11" fill="#ADD1B2" style="stroke:#181818;stroke-width:1"/><path d="M24.969 354.115q-.578.297-1.219.438-.64.156-1.344.156-2.5 0-3.828-1.64-1.312-1.657-1.312-4.782t1.312-4.781q1.328-1.656 3.828-1.656.703 0 1.344.156.656.156 1.219.453v2.719q-.625-.579-1.219-.844-.594-.281-1.219-.281-1.343 0-2.031 1.078-.687 1.062-.687 3.156t.687 3.172q.688 1.062 2.031 1.062.625 0 1.219-.265.594-.281 1.219-.86z"/><text x="41" y="354.36" fill="#D9B8FF" font-family="Helvetica" font-size="17" textLength="241">aws_sagemaker_user_profile</text><rect width="113" height="39.789" x="92" y="7" fill="#3D176E" rx="2.5" ry="2.5" style="stroke:#000d19;stroke-width:.5"/><circle cx="107" cy="26.895" r="11" fill="#ADD1B2" style="stroke:#181818;stroke-width:1"/><path d="M109.969 32.535q-.578.297-1.219.438-.64.156-1.344.156-2.5 0-3.828-1.64-1.312-1.657-1.312-4.782t1.312-4.781q1.328-1.656 3.828-1.656.703 0 1.344.156.656.156 1.219.453v2.719q-.625-.578-1.219-.844-.594-.281-1.219-.281-1.344 0-2.031 1.078-.687 1.062-.687 3.156t.687 3.172q.688 1.062 2.031 1.062.625 0 1.219-.265.594-.281 1.219-.86z"/><text x="126" y="32.78" fill="#D9B8FF" font-family="Helvetica" font-size="17" textLength="71">resource</text><path fill="none" d="M148.5 65.05v102.41m0-120.41-6 18h12zm0 178.79v102.41m0-120.41-6 18h12z" style="stroke:#ffaf37;stroke-width:2"/></svg>
